X:21
T:Countess of Haddington, The
R:Strathspey
C:Neil Gow
S:MacDonald - Skye Collection
N:pg.132
M:C
L:1/8
K:B_
F|(D/E/F) BF (D/E/F) BF|GEFD Ccc>d|(D/E/F) BF (D/E/F) Bg|fd (e/d/)c/B/ FBB:|
d|B/c/d/e/ fb Bbfd|e(d/c/) (e/d/)c/B/ G(cc)d|(B/c/d/e/) fb Bbfd|
ed/c/ (e/d/)c/B/ FBB>d|(B/c/d/e/) fb Bbfd|e(d/c/) (e/d/)c/B/ G(cc>)d|
B<FD<F D<FD<g|f>d (e/d/)c/B/ FBB||
